img/logo-budgeting.svg

<svg width="72" height="72" viewBox="0 0 72 72" fill="none" xmlns="http://www.w3.org/2000/svg">
<g id="Group 22">
<circle id="Oval Copy" cx="36" cy="36" r="36" fill="url(#paint0_linear)"/>
<path id="Combined Shape" fill-rule="evenodd" clip-rule="evenodd" d="M47.7249 19.092V26.6624C52.9559 26.9483 57.1181 31.0269 57.1181 36C57.1181 40.9731 52.9557 45.0517 47.7247 45.3376V52.908C47.7247 54.6128 46.3377 55.9999 44.6328 55.9999H27.0985C25.3937 55.9999 24.0066 54.6129 24.0066 52.908V45.6673C24.0066 45.343 24.2694 45.0802 24.5937 45.0802C24.918 45.0802 25.1808 45.343 25.1808 45.6673V49.1898H46.5507V45.3378C45.5588 45.2841 44.5901 45.0943 43.6611 44.7704L39.278 47.1612C38.812 47.4153 38.2648 46.9412 38.445 46.4452L39.7527 42.8493H33.0477C32.8937 42.8493 32.7413 42.7866 32.6325 42.6773L27.9359 37.9807C27.8271 37.8715 27.764 37.7201 27.764 37.5656V24.728C27.764 24.4038 28.0268 24.1409 28.3511 24.1409H43.3804C43.7047 24.1409 43.9675 24.4038 43.9675 24.728V27.1298C44.7867 26.8719 45.653 26.7115 46.5507 26.6624V22.184H25.1809V42.8884C25.1809 43.2127 24.9181 43.4755 24.5938 43.4755C24.2695 43.4755 24.0067 43.2127 24.0067 42.8884V19.092C24.0067 17.3871 25.3938 16 27.0986 16H44.6329C46.3378 16 47.7249 17.3871 47.7249 19.092ZM44.6329 54.8259C45.6904 54.8259 46.5507 53.9655 46.5507 52.908V50.364H25.1808V52.908C25.1808 53.9655 26.0411 54.8259 27.0986 54.8259H44.6329ZM25.1808 21.0098V19.092C25.1808 18.0345 26.041 17.1741 27.0986 17.1741H44.6328C45.6903 17.1741 46.5507 18.0345 46.5507 19.092V21.0098H25.1808ZM29.7685 38.1527L32.4607 40.8449V38.1527H29.7685ZM33.6349 41.6752V37.5655C33.6349 37.2413 33.3721 36.9784 33.0478 36.9784H28.9382V25.3151H42.7933V27.5796C42.1886 27.8548 41.6182 28.1859 41.0888 28.5651C41.0226 28.5392 40.9509 28.5245 40.8755 28.5245H37.7445C37.4202 28.5245 37.1574 28.7874 37.1574 29.1116C37.1574 29.4359 37.4202 29.6987 37.7445 29.6987H39.7682C39.195 30.2873 38.7009 30.9447 38.3014 31.6557H31.4823C31.158 31.6557 30.8952 31.9186 30.8952 32.2428C30.8952 32.567 31.158 32.8299 31.4823 32.8299H37.748C37.3661 33.8204 37.1575 34.8878 37.1575 36.0002C37.1575 38.0834 37.8753 40.0544 39.2022 41.6753H33.6349V41.6752ZM43.8202 43.579C44.8746 43.9778 45.9909 44.18 47.1378 44.18C51.9935 44.18 55.944 40.5105 55.944 35.9999C55.944 31.4894 51.9935 27.8198 47.1378 27.8198C42.2821 27.8198 38.3315 31.4894 38.3315 35.9999C38.3315 38.2172 39.2718 40.2933 40.9792 41.8456C41.1555 42.0059 41.2175 42.2567 41.1361 42.4806L40.0795 45.3865L43.3314 43.6127C43.4816 43.5308 43.6601 43.5184 43.8202 43.579ZM34.6133 18.5049H37.1182C37.4425 18.5049 37.7053 18.7677 37.7053 19.092C37.7053 19.4162 37.4425 19.6791 37.1182 19.6791H34.6133C34.289 19.6791 34.0262 19.4162 34.0262 19.092C34.0262 18.7678 34.289 18.5049 34.6133 18.5049ZM37.1182 51.0685H34.6133C34.289 51.0685 34.0262 51.3314 34.0262 51.6556V53.5343C34.0262 53.8585 34.289 54.1214 34.6133 54.1214H37.1182C37.4425 54.1214 37.7053 53.8585 37.7053 53.5343V51.6556C37.7053 51.3313 37.4425 51.0685 37.1182 51.0685ZM36.5311 52.9472H35.2004V52.2427H36.5311V52.9472ZM35.2396 28.5245H31.4822C31.1579 28.5245 30.8951 28.7873 30.8951 29.1116C30.8951 29.4358 31.1579 29.6987 31.4822 29.6987H35.2396C35.5639 29.6987 35.8267 29.4358 35.8267 29.1116C35.8267 28.7873 35.5639 28.5245 35.2396 28.5245ZM31.4822 34.7867H35.8658C36.1901 34.7867 36.4528 35.0495 36.4529 35.3738C36.4529 35.698 36.1901 35.9609 35.8658 35.9609H31.4822C31.1579 35.9609 30.8951 35.698 30.8951 35.3738C30.8951 35.0496 31.1579 34.7867 31.4822 34.7867ZM50.2298 34.1213C50.2298 34.4455 49.967 34.7084 49.6427 34.7084C49.3184 34.7084 49.0556 34.4455 49.0555 34.1213V33.4951C49.0555 32.783 48.4761 32.2035 47.7639 32.2035H46.8246C45.9398 32.2035 45.22 32.9234 45.22 33.8082C45.22 34.693 45.9398 35.4129 46.8246 35.4129H47.4509C48.9832 35.4129 50.2298 36.6595 50.2298 38.1918C50.2298 39.6316 49.129 40.819 47.7249 40.957V42.2622C47.7249 42.5864 47.4621 42.8493 47.1378 42.8493C46.8135 42.8493 46.5507 42.5864 46.5507 42.2622V40.9706H46.5115C45.1519 40.9706 44.0457 39.8645 44.0457 38.5048C44.0457 38.1806 44.3085 37.9177 44.6328 37.9177C44.9571 37.9177 45.22 38.1806 45.22 38.5048C45.22 39.217 45.7993 39.7964 46.5115 39.7964H47.4508C48.3357 39.7964 49.0555 39.0766 49.0555 38.1917C49.0555 37.3069 48.3357 36.587 47.4508 36.587H46.8246C45.2923 36.587 44.0457 35.3405 44.0457 33.8082C44.0457 32.3684 45.1465 31.181 46.5507 31.043V29.7377C46.5507 29.4135 46.8135 29.1506 47.1378 29.1506C47.4621 29.1506 47.7249 29.4135 47.7249 29.7377V31.0293H47.764C49.1236 31.0293 50.2298 32.1355 50.2298 33.4951V34.1213Z" fill="white"/>
</g>
<defs>
<linearGradient id="paint0_linear" x1="-35.8489" y1="35.8489" x2="35.8489" y2="107.547" gradientUnits="userSpaceOnUse">
<stop stop-color="#33D35E"/>
<stop offset="1" stop-color="#2AB6D9"/>
</linearGradient>
</defs>
</svg>

<svg width="72" height="72" fill="none" xmlns="http://www.w3.org/2000/svg"><circle cx="36" cy="36" r="36" fill="url(#paint0_linear)"/><path fill-rule="evenodd" clip-rule="evenodd" d="M47.725 19.092v7.57c5.23.286 9.393 4.365 9.393 9.338 0 4.973-4.162 9.052-9.393 9.338v7.57A3.095 3.095 0 0144.633 56H27.098a3.095 3.095 0 01-3.091-3.092v-7.24a.587.587 0 111.174 0v3.522h21.37v-3.852a10.478 10.478 0 01-2.89-.568l-4.383 2.391c-.466.254-1.013-.22-.833-.716l1.308-3.596h-6.705a.591.591 0 01-.416-.172l-4.696-4.696a.593.593 0 01-.172-.415V24.728c0-.324.263-.587.587-.587h15.03c.324 0 .587.263.587.587v2.402c.819-.258 1.685-.418 2.583-.468v-4.478H25.18v20.704a.587.587 0 11-1.174 0V19.092A3.096 3.096 0 0127.099 16h17.534a3.096 3.096 0 013.092 3.092zm-3.092 35.734a1.92 1.92 0 001.918-1.918v-2.544H25.18v2.544a1.92 1.92 0 001.918 1.918h17.534zM25.18 21.01v-1.918a1.92 1.92 0 011.918-1.918h17.534a1.92 1.92 0 011.918 1.918v1.918H25.18zm4.587 17.143l2.693 2.692v-2.692h-2.692zm3.867 3.522v-4.11a.587.587 0 00-.587-.587h-4.11V25.315h13.855v2.265a10.14 10.14 0 00-1.704.985.584.584 0 00-.213-.04h-3.131a.587.587 0 100 1.174h2.023a9.427 9.427 0 00-1.467 1.957h-6.819a.587.587 0 100 1.174h6.266a8.788 8.788 0 00-.59 3.17c0 2.083.717 4.054 2.044 5.675h-5.567zM43.82 43.58a9.343 9.343 0 003.318.601c4.855 0 8.806-3.67 8.806-8.18s-3.95-8.18-8.806-8.18c-4.856 0-8.806 3.67-8.806 8.18 0 2.217.94 4.293 2.647 5.846.177.16.239.41.157.635l-1.056 2.905 3.251-1.773a.587.587 0 01.49-.034zm-9.207-25.074h2.505a.587.587 0 110 1.174h-2.505a.587.587 0 110-1.174zm2.505 32.564h-2.505a.587.587 0 00-.587.587v1.878c0 .325.263.587.587.587h2.505a.587.587 0 00.587-.587v-1.878a.587.587 0 00-.587-.587zm-.587 1.878h-1.33v-.704h1.33v.704zM35.24 28.524h-3.758a.587.587 0 100 1.175h3.758a.587.587 0 100-1.175zm-3.758 6.263h4.384a.587.587 0 110 1.174h-4.384a.587.587 0 110-1.174zm18.748-.666a.587.587 0 11-1.174 0v-.626c0-.712-.58-1.291-1.292-1.291h-.94c-.884 0-1.604.72-1.604 1.604 0 .885.72 1.605 1.605 1.605h.626a2.782 2.782 0 012.779 2.779c0 1.44-1.101 2.627-2.505 2.765v1.305a.587.587 0 11-1.174 0v-1.291h-.04a2.469 2.469 0 01-2.465-2.466.587.587 0 111.174 0c0 .712.58 1.291 1.291 1.291h.94c.885 0 1.605-.72 1.605-1.604 0-.885-.72-1.605-1.605-1.605h-.626a2.782 2.782 0 01-2.78-2.779c0-1.44 1.102-2.627 2.506-2.765v-1.305a.587.587 0 111.174 0v1.291h.039a2.469 2.469 0 012.466 2.466v.626z" fill="#fff"/><defs><linearGradient id="paint0_linear" x1="-35.849" y1="35.849" x2="35.849" y2="107.547" gradientUnits="userSpaceOnUse"><stop stop-color="#33D35E"/><stop offset="1" stop-color="#2AB6D9"/></linearGradient></defs></svg>
